X:1
T: Young Scottie
C:C. Sherrit
R:Jig
Q:180
K:A
M:6/8
L:1/16
E2:|A4A2 A4c2|B2G2E2 E2F2G2|A4c2 e4c2|e2f2g2 a4e2|
|1f4d2 d2e2f2|e4c2 A2B2c2|d4c2 B4A2|A2G2F2 E2F2G2:|
|2f4d2 a2g2f2|e4c2 A4c2|B2d2B2 E4G2|A6 A4B2|
c4f2 f4g2|a6 a2g2f2|g4c2 b2a2g2|f6 f4e2|
B4e2 e4f2|g6 g4a2|b4B2 a2g2f2|e2f2e2 d2c2B2|
A4A2 A4c2|B2G2E2 E2F2G2|A4c2 e4c2|e2f2g2 a4e2|
f4d2 a2g2f2|e4c2 A4c2|B2d2B2 E4G2|A6A4||
